X: 1
T: Golden Knot
C:\251 George Meikle
B: George Meikle "Originally Mine" p.20
R: strathspey
Z: 2010 John Chambers <jc:trillian.mit.edu>
M: 4/4
L: 1/8
K: C
G>F |:\
"C"E2 E>F "E/C7"G>c _B>G | "F"A2 F>E "F#/D7"F>d c>A |\
"G"B2 G>^F "B/G7"G>e d>B | "C"c>B c>d "G7"e>c G>F |
"C"E2 E>F "E/C7"G>c _B>G | "F"A2 F>E "F#/D7"F>d c>A |\
"G"B2 G>^F "B/G7"G>e d>B |1 "C"c>e "G7"d>B "C"c2 G>F :|2 "C"c>e "G7"d>B "C"c2 c>d |
|: "C"e2 e>c "E/C7"d>c B>c | "F"A>F F>E "F#/D7"F>d c>A |\
"G"B>G G>^F "B/G7"G>e d>B | "C"c>B c>d "G7"e>B c>d |
"C"e2 e>c "E/C7"d>c B>c | "F"A>F F>E "F#/D7"F>d c>A |\
"G"B>G G>^F "B/G7"G>e d>B |1 "C"c>e "G7"d>B "C"c2 c>d :|2 "C"c>e "G7"d>B "C"c2 c2 |]
%%begintext align
Composed for Jonathan & Mary Ross's Golden Wedding anniversary in 2002 and is used as the original
tune for the John Drewry dance bearing the same name.
%%endtext

%%sep 1 1 500
%%sep 1 1 500

